X: 34827
T: Road To West Mabou, The
R: reel
M: 4/4
K: Dmajor
|:f2 ed B2 d2|~e2 de feeg-|gfed ABdf|~e2 de fdde|
f2 ed B2 df|~e2 de feef|afed ~e2 de|1 faaf edde:|2 faaf ed d2||
|:dBAG FAAB|Afed ed B2|dBAG FAAB|Aagf ed d2|
dBAG FAAB|Afed ed B2|faaf edBA|Aaaf ed d2:|

